X: 2529
T: Ballyfin, The
R: polka
M: 2/4
K: Dmixolydian
A2AG|Ad dB|cB cE|EF GE|
A2AG|Ad dB|cB cE|EDD2:|
ed ^cd|e^cd2|ed ^cd|ea ag|
ed ^cd|e^c d2|AB ^cd|e^cd2:|

